Avidclan_Website/assets/images/icons/high-quality-ic.svg

<?xml version="1.0" encoding="utf-8"?>
<!-- Generator: Adobe Illustrator 24.1.1, SVG Export Plug-In . SVG Version: 6.00 Build 0)  -->
<svg version="1.1" id="Layer_1" xmlns="http://www.w3.org/2000/svg" xmlns:xlink="http://www.w3.org/1999/xlink" x="0px" y="0px"
	 viewBox="0 0 191.1 245.9" style="enable-background:new 0 0 191.1 245.9;" xml:space="preserve">
<style type="text/css">
	.st0{fill:#007AFB;}
</style>
<g>
	<path class="st0" d="M95.6,18C75,18,55.2,26.2,40.7,40.7C26.1,55.3,17.9,75,17.9,95.6c0,20.6,8.2,40.3,22.8,54.9
		s34.3,22.7,54.9,22.7c20.6,0,40.3-8.2,54.9-22.8c14.6-14.6,22.7-34.3,22.7-54.9c0-20.6-8.2-40.3-22.8-54.8
		C135.9,26.2,116.1,18,95.6,18L95.6,18z M95.6,163.7c-18.1,0-35.4-7.2-48.2-20s-20-30.1-20-48.2s7.2-35.4,20-48.2s30.1-20,48.2-20
		s35.4,7.2,48.2,20c12.8,12.8,20,30.1,20,48.2c0,18.1-7.2,35.4-20,48.2C131,156.5,113.6,163.7,95.6,163.7L95.6,163.7z"/>
	<path class="st0" d="M110.8,79.5L100,48.3c-0.7-1.9-2.5-3.2-4.5-3.2c-2,0-3.8,1.3-4.5,3.2L80.3,79.5l-33.2,0.6h0
		c-2,0-3.8,1.4-4.4,3.3c-0.6,1.9,0.1,4,1.7,5.2l26.3,19.8l-5.8,18.9l-3.8,12.4l0,0c-0.6,1.9,0.1,4,1.8,5.2c1.6,1.2,3.8,1.2,5.5,0
		l27-18.9l27,18.9c1.7,1.2,3.9,1.1,5.5,0c1.6-1.2,2.3-3.3,1.8-5.2l-9.5-31.5l26.3-19.8v0c1.6-1.2,2.3-3.3,1.7-5.2
		c-0.6-1.9-2.4-3.2-4.4-3.3L110.8,79.5z M111.8,102.9c-1.6,1.2-2.2,3.3-1.7,5.2l6.6,21.5l-18.5-12.9c-1.6-1.1-3.8-1.1-5.4,0
		l-18.4,12.9L81,108c0.6-1.9-0.1-4-1.7-5.2l-18-13.5l22.5-0.4c2,0,3.7-1.3,4.4-3.2l7.3-21.3l7.3,21.3l0,0c0.7,1.9,2.4,3.1,4.4,3.2
		l22.5,0.4L111.8,102.9z"/>
	<path class="st0" d="M191.1,95.6c0-15.3-3.7-30.5-10.8-44.1c-0.5-1.2-1.5-2.1-2.8-2.6s-2.6-0.3-3.8,0.3c-1.2,0.6-2,1.7-2.4,2.9
		c-0.4,1.3-0.2,2.6,0.5,3.7c11.1,21.4,12.7,46.5,4.4,69.1c-8.3,22.6-25.7,40.8-47.9,50c-20.9,8.5-44.4,8.5-65.4,0
		c-16.3-6.7-30.2-18.3-39.8-33.1c-1.4-2.3-4.4-2.9-6.7-1.5s-2.9,4.4-1.5,6.7c9.7,15,23.3,27,39.4,34.8V241c-0.1,1.5,0.6,2.9,1.8,3.9
		s2.7,1.3,4.2,0.9l35.1-9.5l35.1,9.5h0c1.5,0.4,3,0.1,4.2-0.9c1.2-0.9,1.8-2.4,1.8-3.9v-59.2c16.3-7.7,30.1-19.9,39.7-35.2
		C186,131.3,191.1,113.6,191.1,95.6L191.1,95.6z M127.2,234.7l-30.4-8.3v0c-0.8-0.2-1.7-0.2-2.5,0l-30.4,8.3v-48.4
		c8.7,2.8,17.8,4.4,26.9,4.7v17.7c0,2.6,2.1,4.7,4.7,4.7c2.6,0,4.7-2.1,4.7-4.7v-17.6c9.1-0.3,18.2-1.9,26.9-4.7L127.2,234.7z"/>
	<path class="st0" d="M16.9,130.3c-1.8-4.1-3.3-8.4-4.5-12.8c-0.8-2.4-3.3-3.7-5.7-3.1c-2.4,0.6-3.9,3.1-3.4,5.5
		c1.3,4.9,2.9,9.6,5,14.2c1.1,2.4,3.9,3.5,6.3,2.4C16.8,135.5,17.9,132.7,16.9,130.3L16.9,130.3z"/>
	<path class="st0" d="M5.6,108.7c1.3-0.1,2.4-0.7,3.2-1.7s1.2-2.2,1.1-3.5c0-2.6-0.4-5.3-0.4-7.9c0-23.2,9.4-45.5,26-61.7
		C52.1,17.8,74.6,9,97.8,9.6s45.2,10.6,61,27.6c1.8,1.9,4.8,2,6.7,0.3c1.9-1.8,2-4.8,0.3-6.7c-17.5-19-41.9-30-67.7-30.7
		C72.3-0.7,47.4,9.1,28.9,27.1C10.4,45.1,0,69.8,0,95.6c0,2.9,0,5.8,0.4,8.7c0.2,2.4,2.3,4.3,4.7,4.3L5.6,108.7z"/>
</g>
</svg>

<svg width="192" height="246" viewBox="0 0 192 246" fill="none" xmlns="http://www.w3.org/2000/svg">
<g clip-path="url(#clip0_493_425)">
<path d="M95.6 18C75 18 55.2 26.2 40.7 40.7C26.1 55.3 17.9 75 17.9 95.6C17.9 116.2 26.1 135.9 40.7 150.5C55.3 165.1 75 173.2 95.6 173.2C116.2 173.2 135.9 165 150.5 150.4C165.1 135.8 173.2 116.1 173.2 95.5C173.2 74.9 165 55.2 150.4 40.7C135.9 26.2 116.1 18 95.6 18ZM95.6 163.7C77.5 163.7 60.2 156.5 47.4 143.7C34.6 130.9 27.4 113.6 27.4 95.5C27.4 77.4 34.6 60.1 47.4 47.3C60.2 34.5 77.5 27.3 95.6 27.3C113.7 27.3 131 34.5 143.8 47.3C156.6 60.1 163.8 77.4 163.8 95.5C163.8 113.6 156.6 130.9 143.8 143.7C131 156.5 113.6 163.7 95.6 163.7Z" fill="#0E53BE"/>
<path d="M110.8 79.5L100 48.3C99.3 46.4 97.5 45.1 95.5 45.1C93.5 45.1 91.7 46.4 91 48.3L80.3 79.5L47.1 80.1C45.1 80.1 43.3 81.5 42.7 83.4C42.1 85.3 42.8 87.4 44.4 88.6L70.7 108.4L64.9 127.3L61.1 139.7C60.5 141.6 61.2 143.7 62.9 144.9C64.5 146.1 66.7 146.1 68.4 144.9L95.4 126L122.4 144.9C124.1 146.1 126.3 146 127.9 144.9C129.5 143.7 130.2 141.6 129.7 139.7L120.2 108.2L146.5 88.4C148.1 87.2 148.8 85.1 148.2 83.2C147.6 81.3 145.8 80 143.8 79.9L110.8 79.5ZM111.8 102.9C110.2 104.1 109.6 106.2 110.1 108.1L116.7 129.6L98.2 116.7C96.6 115.6 94.4 115.6 92.8 116.7L74.4 129.6L81 108C81.6 106.1 80.9 104 79.3 102.8L61.3 89.3L83.8 88.9C85.8 88.9 87.5 87.6 88.2 85.7L95.5 64.4L102.8 85.7C103.5 87.6 105.2 88.8 107.2 88.9L129.7 89.3L111.8 102.9Z" fill="#0E53BE"/>
<path d="M191.1 95.6C191.1 80.3 187.4 65.1 180.3 51.5C179.8 50.3 178.8 49.4 177.5 48.9C176.2 48.4 174.9 48.6 173.7 49.2C172.5 49.8 171.7 50.9 171.3 52.1C170.9 53.4 171.1 54.7 171.8 55.8C182.9 77.2 184.5 102.3 176.2 124.9C167.9 147.5 150.5 165.7 128.3 174.9C107.4 183.4 83.9 183.4 62.9 174.9C46.6 168.2 32.7 156.6 23.1 141.8C21.7 139.5 18.7 138.9 16.4 140.3C14.1 141.7 13.5 144.7 14.9 147C24.6 162 38.2 174 54.3 181.8V241C54.2 242.5 54.9 243.9 56.1 244.9C57.3 245.9 58.8 246.2 60.3 245.8L95.4 236.3L130.5 245.8C132 246.2 133.5 245.9 134.7 244.9C135.9 244 136.5 242.5 136.5 241V181.8C152.8 174.1 166.6 161.9 176.2 146.6C186 131.3 191.1 113.6 191.1 95.6ZM127.2 234.7L96.8 226.4C96 226.2 95.1 226.2 94.3 226.4L63.9 234.7V186.3C72.6 189.1 81.7 190.7 90.8 191V208.7C90.8 211.3 92.9 213.4 95.5 213.4C98.1 213.4 100.2 211.3 100.2 208.7V191.1C109.3 190.8 118.4 189.2 127.1 186.4L127.2 234.7Z" fill="#0E53BE"/>
<path d="M16.9 130.3C15.1 126.2 13.6 121.9 12.4 117.5C11.6 115.1 9.1 113.8 6.7 114.4C4.3 115 2.8 117.5 3.3 119.9C4.6 124.8 6.2 129.5 8.3 134.1C9.4 136.5 12.2 137.6 14.6 136.5C16.8 135.5 17.9 132.7 16.9 130.3Z" fill="#0E53BE"/>
<path d="M5.6 108.7C6.9 108.6 8 108 8.8 107C9.6 106 10 104.8 9.9 103.5C9.9 100.9 9.5 98.2 9.5 95.6C9.5 72.4 18.9 50.1 35.5 33.9C52.1 17.8 74.6 9 97.8 9.6C121 10.2 143 20.2 158.8 37.2C160.6 39.1 163.6 39.2 165.5 37.5C167.4 35.7 167.5 32.7 165.8 30.8C148.3 11.8 123.9 0.799999 98.1 0.0999992C72.3 -0.700001 47.4 9.1 28.9 27.1C10.4 45.1 0 69.8 0 95.6C0 98.5 0 101.4 0.4 104.3C0.6 106.7 2.7 108.6 5.1 108.6L5.6 108.7Z" fill="#0E53BE"/>
</g>
<defs>
<clipPath id="clip0_493_425">
<rect width="191.1" height="245.9" fill="white"/>
</clipPath>
</defs>
</svg>
